X: 3
T:Gnglt frn Holmsveden (Skog)
R:gnglt/marsch
S:efter Olle Gustavsson-Solne
A:s. Hlsingland
O:Sweden
M:4/4
L:1/4
Q:1/4=140
K:Dm
(A^c) (d>c)|A{fg}f e>f|(g/f/)e/d/ =cA|BG A2|F(G/F/) E(F/E/)|\
[1D^cd3/2((3c/4d/4c/4):|[2D^c d>e|:\
fa (a/g/)f|eg (g/f/)e|fa (a/g/)f|eg (g/f/)e|d(e/f/)d(e/f/)|\
(g/f/)e/d/=cA|BGA2|F(G/F/) E(F/E/)|[1D^cd>e:|[2D^cd2|]\
T:Understmma
(DE)(F>E)|Dd^c>d|(e/d/)=c/B/ A (F/D/)|[G,D][G,D] [A,2F2]|\
(D/F/)(A/F/) G(A/G/)|[1FE[F3/2A3/2]E/:|[2FE[F3/2A3/2]A/\
|:df(f/e/)d|^ce(e/d/)c|df(f/e/)d|^ce(e/d/)c|A(^c/d/) A(^c/d/)|\
(e/d/)=c/B/ A(F/D/)|[G,D][G,D] [A,2F2]|\
(D/F/)(A/F/) G(A/G/)|[1FE[F3/2A3/2]A/:|[2FE[F2A2]|]
